client/resources/iconsets/breeze/src/svg/large/icon_large_list_view.svg

<svg xmlns="http://www.w3.org/2000/svg" width="32" height="32" viewBox="0 0 32 32">
 <path style="fill:#6d6d70"
       d="M 4.9316406 5 C 4.4152002 5 4 5.4151996 4 5.9316406 L 4 6.0683594 C 4 6.5848004 4.4152002 7 4.9316406 7 L 7.0683594 7 C 7.5847998 7 8 6.5848004 8 6.0683594 L 8 5.9316406 C 8 5.4151996 7.5847998 5 7.0683594 5 L 4.9316406 5 z M 10.931641 5 C 10.4152 5 10 5.4151996 10 5.9316406 L 10 6.0683594 C 10 6.5848004 10.4152 7 10.931641 7 L 27.068359 7 C 27.5848 7 28 6.5848004 28 6.0683594 L 28 5.9316406 C 28 5.4151996 27.5848 5 27.068359 5 L 10.931641 5 z M 4.9316406 12 C 4.4152002 12 4 12.4152 4 12.931641 L 4 13.068359 C 4 13.5848 4.4152002 14 4.9316406 14 L 7.0683594 14 C 7.5847998 14 8 13.5848 8 13.068359 L 8 12.931641 C 8 12.4152 7.5847998 12 7.0683594 12 L 4.9316406 12 z M 10.931641 12 C 10.4152 12 10 12.4152 10 12.931641 L 10 13.068359 C 10 13.5848 10.4152 14 10.931641 14 L 27.068359 14 C 27.5848 14 28 13.5848 28 13.068359 L 28 12.931641 C 28 12.4152 27.5848 12 27.068359 12 L 10.931641 12 z M 4.9316406 19 C 4.4152002 19 4 19.4152 4 19.931641 L 4 20.068359 C 4 20.5848 4.4152002 21 4.9316406 21 L 7.0683594 21 C 7.5847998 21 8 20.5848 8 20.068359 L 8 19.931641 C 8 19.4152 7.5847998 19 7.0683594 19 L 4.9316406 19 z M 10.931641 19 C 10.4152 19 10 19.4152 10 19.931641 L 10 20.068359 C 10 20.5848 10.4152 21 10.931641 21 L 27.068359 21 C 27.5848 21 28 20.5848 28 20.068359 L 28 19.931641 C 28 19.4152 27.5848 19 27.068359 19 L 10.931641 19 z M 4.9316406 26 C 4.4152002 26 4 26.4152 4 26.931641 L 4 27.068359 C 4 27.5848 4.4152002 28 4.9316406 28 L 7.0683594 28 C 7.5847998 28 8 27.5848 8 27.068359 L 8 26.931641 C 8 26.4152 7.5847998 26 7.0683594 26 L 4.9316406 26 z M 10.931641 26 C 10.4152 26 10 26.4152 10 26.931641 L 10 27.068359 C 10 27.5848 10.4152 28 10.931641 28 L 27.068359 28 C 27.5848 28 28 27.5848 28 27.068359 L 28 26.931641 C 28 26.4152 27.5848 26 27.068359 26 L 10.931641 26 z "
       />
</svg>

<svg xmlns="http://www.w3.org/2000/svg" width="32" height="32"><path d="M4.932 5A.93.93 0 0 0 4 5.932v.137A.93.93 0 0 0 4.932 7h2.137A.93.93 0 0 0 8 6.068v-.137A.93.93 0 0 0 7.068 5H4.932zm6 0a.93.93 0 0 0-.932.932v.137a.93.93 0 0 0 .932.932h16.137A.93.93 0 0 0 28 6.068v-.137A.93.93 0 0 0 27.068 5H10.932zm-6 7a.93.93 0 0 0-.932.932v.137a.93.93 0 0 0 .932.932h2.137A.93.93 0 0 0 8 13.068v-.137A.93.93 0 0 0 7.068 12H4.932zm6 0a.93.93 0 0 0-.932.932v.137a.93.93 0 0 0 .932.932h16.137a.93.93 0 0 0 .932-.932v-.137a.93.93 0 0 0-.932-.932H10.932zm-6 7a.93.93 0 0 0-.932.932v.137a.93.93 0 0 0 .932.932h2.137A.93.93 0 0 0 8 20.068v-.137A.93.93 0 0 0 7.068 19H4.932zm6 0a.93.93 0 0 0-.932.932v.137a.93.93 0 0 0 .932.932h16.137a.93.93 0 0 0 .932-.932v-.137a.93.93 0 0 0-.932-.932H10.932zm-6 7a.93.93 0 0 0-.932.932v.137a.93.93 0 0 0 .932.932h2.137A.93.93 0 0 0 8 27.068v-.137A.93.93 0 0 0 7.068 26H4.932zm6 0a.93.93 0 0 0-.932.932v.137a.93.93 0 0 0 .932.932h16.137a.93.93 0 0 0 .932-.932v-.137a.93.93 0 0 0-.932-.932H10.932z" fill="#6d6d70"/></svg>
